X:42
T:Waltz,2voices. WHG.041
R:waltz
S:W.H.Giles MS,Bampton,Oxfordshire,1839p38, p39
O:England
H:donated by Mrs W.R.Kettlewell to VWML,Apr 1927.
A:Bampton, Oxfordshire
N:2nd voice – bars 7 & 8 are |CE GD|FA df| in the MS.
Z:PJHeadford – VMP 2009
M:3/4
L:1/8
Q:1/4=160
K:C
[V:1]ef|agecBc|AcA zc2|c2z2 d2|d2z2 ef|\
[V:2]z2|z6|z4c2|c2z2c2|B2z4|\
%
[V:1]agecBc|AcG zc2|ceagfd|c2z2:|\
[V:2]z6|z4c2|c2c2B2|c2z2:|\
%
[V:1]GF|E>Gc2B2|A2zedc|B>dg2f2|f2e2G>F|\
[V:2]z2|E2D2D2|F2zcBA|G>Be2d2|d2c2E>D|\
%
[V:1]E>Gc2 _B2|A>cf2 a2|gecedB|c2z2||\
[V:2]CE G2D2|FA d2f2|e2e2 d2|c2z2||
%
[V:1]gf|e>gc’2a2|a2 fedc|B>dg2f2|f2e2g>f|\
[V:2]ed|c>ea2g2|f2f2f2|g2g2g2|c2c2e>d|\
%
[V:1]e>gc’2a2|bagac’a|gfagfd|c2z2|]
[V:2]c>ea2g2|f2f2f2|g2g2g2|e2z2|]

